X:1
T:Quante son stelle
T:Claudio Monteverde
T:Source : Primo libro delle canzonette a tre voci---Venetia---R.Amadino---1594. Editor : André Vierendeels (25/07/17).
T:Notes : Original clefs : C1, C1, F4
T:Quante son stelle
T:©
T:©
C:Claudio Monteverde
Z:©
%%score [ 1 2 3 ]
L:1/8
Q:1/4=120
M:4/4
K:C
V:1 treble nm="Soprano 1" snm="S 1"
V:2 treble nm="Soprano 2" snm="S 2"
V:3 bass nm="Bass" snm="B"
V:1
 c4 c2 c2 | c2 d2 e4- | e2 c2 c2 B2 | A4 A2 A2- | A2 A2 _B4- | B2 AG A4 | G8 :: e4 e2 e2 | %8
w: Quan- te son|stel- le'in ciel|_ è'in mar a-|re- ne, tan-|* te son|_ le mie pe-|ne,|e se na-|
w: Quan- te son|fron- de'in bos|_ c'o'in ra- mi|fo- glie, tan-|* te son|_ le mie do-|glie,|e s'io bra-|
w: Quan- ti son|fiu- m'in ter-|* ra'e pe- sc'in|ma- re, tan-|* te'il mio|_ la- gri- ma-|re,|e s'io chia-|
w: Dun- que s'io|vuo ta- cer|_ per mi- nor|dan- no, i|_ vo piu|_ la- gri- man-|do,|et piu vi-|
 e2 e2 e4 | e2 d4 c2 | B4 B2 B2 | B2 c2 d4- | d4 c4 | B8 | A8 :| %15
w: rar vo'in par-|te'il mio do-|lo- re, piu|mi tor- men-|* t'A-|mo-|re.|
w: mo sfo- gar|l'ar- den- te|fo- co, A-|mor non mi|_ da|lo-|co.|
w: mo soc- cor-|so'al- la mia|vi- ta, A-|mor non mi|_ d'a-|i-|ta.|
w: vo'in tor- men-|ti'et pe- ne'a-|ma- re, A-|mor che deg-|* gio|fa-|re.|
V:2
 A4 A2 A2 | A2 A2 c4- | c2 A2 A2 G2 | ^F4 F2 F2- | F2 ^F2 G4- | G2 ^FE F4 | G8 :: G4 c2 c2 | %8
w: Quan- te son|stel- le'in ciel|_ è'in mar a-|re- ne, tan-|* te son|_ le mie pe-|ne,|e se na-|
w: Quan- te son|fron- de'in bos-|* c'o'in ra- mi|fo- glie, tan-|* te son|_ le mie do-|glie,|e s'io bra-|
w: Quan- ti son|fiu- m'in ter-|* ra'e pe- sc'in|ma- re, tan-|* te'il mio|_ la- gri- ma-|re,|e s'io chia-|
w: Dun- que s'io|vuo ta- cer|_ per mi- nor|dan- no, i|_ vo piu|_ la- gri- man-|do,|et piu vi-|
 c2 c2 c4 | c2 B4 A2 | ^G4 G2 G2 | ^G2 A2 B4 | ^G4 A4- | A2 ^G^F G4 | A8 :| %15
w: rar vo'in par-|te'il mio do-|lo- re, piu|mi tor- men-|t'A- mo-||re.|
w: mo sfo- gar|l'ar- den- te|fo- co, A-|mor non mi|da lo-||co.|
w: mo soc- cor-|so'al- la mia|vi- ta, A-|mor non mi|d'a- i-||ta.|
w: vo'in tor- men-|ti'et pe- ne'a-|ma- re, A-|mor che deg-|gio fa-||re.|
V:3
 A,,4 A,,2 A,,2 | A,,2 A,,2 A,4- | A,2 A,,2 A,,2 A,,2 | D,4 D,4 | D,2 D,2 D,4- | D,2 D,E, D,4 | %6
w: Quan- te son|stel- le'in ciel|_ e'in mar a-|re- ne,|tan- te son|_ le mie pe-|
w: Quan- te son|fron- de'in bos-|* c'o'in ra- mi|fo- glie,|tan- te son|_ le mie do-|
w: Quan- ti son|fiu- m'in ter-|* ra'et pe- sc'in|ma- re,|tan- te'il mio|_ la- gri- ma-|
w: Dun- que s'io|vuo ta- cer|_ per mi- nor|dan- no,|i vo piu|_ la- gri- man-|
 G,,8 :: C,4 C,2 C,2 | C,2 C,2 C,4 | C,2 G,4 A,2 | E,4 E,2 E,2 | E,2 E,2 D,2 D,2 | E,8- | E,8 | %14
w: ne,|e se na-|rar vo'in par-|te'il mio do-|lo- re, piu|mi tor- men- t'A-|mo-||
w: glie,|e s'io bra-|mo sfo- gar|l'ar- den- te|fo- co, A-|mor non mi da|lo-||
w: re,|e s'io chia-|mo soc- cor-|so'al- la mia|vi- ta, A-|mor non mi d'a-|i-||
w: do.|et piu vi-|vo'in tor- men-|ti'et pe- ne'a-|ma- re, A-|mor che deg- gio|fa-||
 A,,8 :| %15
w: re.|
w: co.|
w: ta.|
w: re.|

